symbols/web/quickreply/materialsymbolsoutlined/quickreply_wght200grad200fill1_40px.svg

<svg xmlns="http://www.w3.org/2000/svg" height="40" width="40"><path d="M31 35.792v-7h-1.5v-8.417h4.583l-1.75 5.5h2.917ZM4.125 34.625V6.917q0-1.292.917-2.209.916-.916 2.208-.916h25.5q1.292 0 2.208.916.917.917.917 2.209V16h-10.75v12.792H9.958Z"/></svg>

<svg xmlns="http://www.w3.org/2000/svg" height="40" width="40"><path d="M31 35.792V28.792H29.5V20.375H34.083L32.333 25.875H35.25ZM4.125 34.625V6.917Q4.125 5.625 5.042 4.708Q5.958 3.792 7.25 3.792H32.75Q34.042 3.792 34.958 4.708Q35.875 5.625 35.875 6.917V16H25.125V28.792H9.958Z"/></svg>
